Numix/16/status/indicator-keyboard-Ja-5.svg

<?xml version="1.0" encoding="UTF-8" standalone="no"?>
<svg
   xmlns:dc="http://purl.org/dc/elements/1.1/"
   xmlns:cc="http://creativecommons.org/ns#"
   xmlns:rdf="http://www.w3.org/1999/02/22-rdf-syntax-ns#"
   xmlns:svg="http://www.w3.org/2000/svg"
   xmlns="http://www.w3.org/2000/svg"
   xmlns:sodipodi="http://sodipodi.sourceforge.net/DTD/sodipodi-0.dtd"
   xmlns:inkscape="http://www.inkscape.org/namespaces/inkscape"
   viewBox="0 0 16 16"
   id="svg2"
   version="1.1"
   inkscape:version="0.91 r13725"
   sodipodi:docname="indicator-keyboard-Ja-5.svg">
  <metadata
     id="metadata14">
    <rdf:RDF>
      <cc:Work
         rdf:about="">
        <dc:format>image/svg+xml</dc:format>
        <dc:type
           rdf:resource="http://purl.org/dc/dcmitype/StillImage" />
      </cc:Work>
    </rdf:RDF>
  </metadata>
  <defs
     id="defs12" />
  <sodipodi:namedview
     pagecolor="#ffffff"
     bordercolor="#666666"
     borderopacity="1"
     objecttolerance="10"
     gridtolerance="10"
     guidetolerance="10"
     inkscape:pageopacity="0"
     inkscape:pageshadow="2"
     inkscape:window-width="640"
     inkscape:window-height="480"
     id="namedview10"
     showgrid="false"
     inkscape:zoom="14.75"
     inkscape:cx="8"
     inkscape:cy="8"
     inkscape:window-x="65"
     inkscape:window-y="24"
     inkscape:window-maximized="0"
     inkscape:current-layer="svg2" />
  <path
     style="fill:#ececec;fill-opacity:1"
     d="M 1.5996094 0 C 0.71320937 2.9605947e-16 0 0.71320937 0 1.5996094 L 0 14.400391 C 2.9605947e-16 15.286791 0.71320937 16 1.5996094 16 L 14.400391 16 C 15.286791 16 16 15.286791 16 14.400391 L 16 1.5996094 C 16 0.71320937 15.286791 0 14.400391 0 L 1.5996094 0 z M 5.0566406 4.859375 L 5.6679688 4.859375 L 5.6679688 9.1347656 C 5.6679688 9.4347656 5.638125 9.7127031 5.578125 9.9707031 C 5.518125 10.222703 5.4136719 10.444719 5.2636719 10.636719 C 5.1196719 10.822719 4.9256875 10.970125 4.6796875 11.078125 C 4.4396875 11.180125 4.1355313 11.230469 3.7695312 11.230469 C 3.5535313 11.230469 3.3557812 11.209969 3.1757812 11.167969 C 2.9957813 11.131969 2.8372187 11.087203 2.6992188 11.033203 C 2.5612187 10.979203 2.4436563 10.921328 2.3476562 10.861328 C 2.2576562 10.801328 2.188625 10.747219 2.140625 10.699219 L 2.4296875 10.205078 C 2.4836875 10.253078 2.5489531 10.307188 2.6269531 10.367188 C 2.7109531 10.421188 2.8060625 10.471531 2.9140625 10.519531 C 3.0220625 10.567531 3.1433906 10.606719 3.2753906 10.636719 C 3.4073906 10.666719 3.5510312 10.681641 3.7070312 10.681641 C 4.1690312 10.681641 4.5086094 10.562266 4.7246094 10.322266 C 4.9466094 10.076265 5.0566406 9.6583125 5.0566406 9.0703125 L 5.0566406 4.859375 z M 8.6328125 6.3359375 C 8.9388125 6.3359375 9.19625 6.3807031 9.40625 6.4707031 C 9.62225 6.5547031 9.7976875 6.6740781 9.9296875 6.8300781 C 10.061688 6.9800781 10.156797 7.1591406 10.216797 7.3691406 C 10.276797 7.5791406 10.306641 7.8086875 10.306641 8.0546875 L 10.306641 10.988281 C 10.246641 11.006281 10.158922 11.026781 10.044922 11.050781 C 9.9309215 11.068781 9.8003906 11.089281 9.6503906 11.113281 C 9.5003906 11.137281 9.3324844 11.155969 9.1464844 11.167969 C 8.9664844 11.185969 8.7798906 11.195313 8.5878906 11.195312 C 8.3418906 11.195312 8.1142969 11.167281 7.9042969 11.113281 C 7.7002969 11.059281 7.5192812 10.975328 7.3632812 10.861328 C 7.2132812 10.741328 7.0939063 10.592109 7.0039062 10.412109 C 6.9199063 10.226109 6.8769531 10.000328 6.8769531 9.7363281 C 6.8769531 9.4843281 6.9254844 9.2698437 7.0214844 9.0898438 C 7.1174844 8.9098438 7.2517812 8.7624375 7.4257812 8.6484375 C 7.5997812 8.5284375 7.806875 8.4407187 8.046875 8.3867188 C 8.286875 8.3327188 8.5480781 8.3066406 8.8300781 8.3066406 C 8.9140781 8.3066406 9.0017969 8.3122187 9.0917969 8.3242188 C 9.1877969 8.3302187 9.2773281 8.341375 9.3613281 8.359375 C 9.4513281 8.371375 9.5259375 8.3862969 9.5859375 8.4042969 C 9.6519375 8.4162969 9.6986563 8.4294063 9.7226562 8.4414062 L 9.7226562 8.1523438 C 9.7226562 7.9903437 9.7095469 7.8355469 9.6855469 7.6855469 C 9.6615469 7.5295469 9.6074375 7.3914844 9.5234375 7.2714844 C 9.4454375 7.1454844 9.3316406 7.0466094 9.1816406 6.9746094 C 9.0376406 6.8966094 8.8454688 6.8574219 8.6054688 6.8574219 C 8.2634687 6.8574219 8.0078438 6.8816875 7.8398438 6.9296875 C 7.6718437 6.9776875 7.5506563 7.016875 7.4726562 7.046875 L 7.390625 6.5332031 C 7.492625 6.4852031 7.649375 6.4404375 7.859375 6.3984375 C 8.075375 6.3564375 8.3328125 6.3359375 8.6328125 6.3359375 z M 8.8125 8.8105469 C 8.6685 8.8105469 8.5192812 8.8217031 8.3632812 8.8457031 C 8.2072813 8.8637031 8.0636406 8.9084688 7.9316406 8.9804688 C 7.7996406 9.0464687 7.6914219 9.1397656 7.6074219 9.2597656 C 7.5234219 9.3797656 7.4804687 9.5383281 7.4804688 9.7363281 C 7.4804688 9.9103281 7.5085 10.057734 7.5625 10.177734 C 7.6225 10.297734 7.7026875 10.394797 7.8046875 10.466797 C 7.9126875 10.538797 8.0395937 10.592906 8.1835938 10.628906 C 8.3335938 10.658906 8.5015 10.673828 8.6875 10.673828 C 8.9155 10.673828 9.11325 10.666297 9.28125 10.654297 C 9.45525 10.636297 9.6026562 10.615797 9.7226562 10.591797 L 9.7226562 8.953125 C 9.6566563 8.923125 9.55025 8.8932812 9.40625 8.8632812 C 9.26225 8.8272813 9.0645 8.8105469 8.8125 8.8105469 z M 11.894531 8.8417969 L 13.71875 8.8417969 L 13.71875 9.1757812 L 12.226562 9.1757812 C 12.222629 9.2498812 12.216751 9.3458906 12.208984 9.4628906 C 12.201184 9.5798906 12.193347 9.6994188 12.185547 9.8242188 C 12.177747 9.9451188 12.16795 10.062681 12.15625 10.175781 C 12.14455 10.288881 12.134753 10.379012 12.126953 10.445312 C 12.427253 10.453112 12.68785 10.490341 12.90625 10.556641 C 13.12465 10.622941 13.302959 10.711119 13.443359 10.824219 C 13.583759 10.937319 13.687606 11.074475 13.753906 11.234375 C 13.824106 11.394275 13.859375 11.572578 13.859375 11.767578 C 13.859375 11.939178 13.829984 12.097894 13.771484 12.246094 C 13.716884 12.394294 13.630672 12.523613 13.513672 12.632812 C 13.396672 12.742012 13.249712 12.828225 13.070312 12.890625 C 12.890913 12.953025 12.677341 12.984375 12.431641 12.984375 C 12.306841 12.984375 12.189278 12.974578 12.080078 12.955078 C 11.974778 12.939478 11.880722 12.919884 11.794922 12.896484 C 11.713022 12.873084 11.642484 12.849572 11.583984 12.826172 C 11.525484 12.802772 11.482378 12.783178 11.455078 12.767578 L 11.554688 12.427734 C 11.578088 12.443334 11.617275 12.462928 11.671875 12.486328 C 11.730375 12.509728 11.796994 12.533241 11.871094 12.556641 C 11.949094 12.576141 12.033353 12.593775 12.126953 12.609375 C 12.224453 12.624975 12.326341 12.632812 12.431641 12.632812 C 12.626641 12.632812 12.789269 12.611259 12.917969 12.568359 C 13.050569 12.521559 13.154422 12.458859 13.232422 12.380859 C 13.310422 12.302859 13.365284 12.212728 13.396484 12.111328 C 13.431584 12.006028 13.449219 11.894337 13.449219 11.773438 C 13.449219 11.617437 13.423747 11.476362 13.373047 11.351562 C 13.322347 11.226762 13.234169 11.120956 13.105469 11.035156 C 12.976769 10.949356 12.802384 10.884697 12.583984 10.841797 C 12.365584 10.794997 12.089306 10.771484 11.753906 10.771484 C 11.777306 10.572584 11.7969 10.392316 11.8125 10.228516 C 11.8281 10.060816 11.841816 9.9001469 11.853516 9.7480469 C 11.865216 9.5920469 11.873053 9.4431281 11.876953 9.2988281 C 11.884753 9.1506281 11.890631 8.9977969 11.894531 8.8417969 z "
     id="path4" />
</svg>

<svg xmlns="http://www.w3.org/2000/svg" viewBox="0 0 16 16">
 <path d="m 1.6 0 c -0.886 0 -1.6 0.713 -1.6 1.6 l 0 12.801 c 0 0.886 0.713 1.6 1.6 1.6 l 12.801 0 c 0.886 0 1.6 -0.713 1.6 -1.6 l 0 -12.801 c 0 -0.886 -0.713 -1.6 -1.6 -1.6 l -12.801 0 z m 3.457 4.859 l 0.611 0 l 0 4.275 c 0 0.3 -0.03 0.578 -0.09 0.836 c -0.06 0.252 -0.164 0.474 -0.314 0.666 c -0.144 0.186 -0.338 0.333 -0.584 0.441 c -0.24 0.102 -0.544 0.152 -0.91 0.152 c -0.216 0 -0.414 -0.021 -0.594 -0.063 c -0.18 -0.036 -0.339 -0.081 -0.477 -0.135 c -0.138 -0.054 -0.256 -0.112 -0.352 -0.172 c -0.09 -0.06 -0.159 -0.114 -0.207 -0.162 l 0.289 -0.494 c 0.054 0.048 0.119 0.102 0.197 0.162 c 0.084 0.054 0.179 0.104 0.287 0.152 c 0.108 0.048 0.229 0.087 0.361 0.117 c 0.132 0.03 0.276 0.045 0.432 0.045 c 0.462 0 0.802 -0.119 1.018 -0.359 c 0.222 -0.246 0.332 -0.664 0.332 -1.252 l 0 -4.211 z m 3.576 1.477 c 0.306 0 0.563 0.045 0.773 0.135 c 0.216 0.084 0.391 0.203 0.523 0.359 c 0.132 0.15 0.227 0.329 0.287 0.539 c 0.06 0.21 0.09 0.44 0.09 0.686 l 0 2.934 c -0.06 0.018 -0.148 0.038 -0.262 0.063 c -0.114 0.018 -0.245 0.038 -0.395 0.063 c -0.15 0.024 -0.318 0.043 -0.504 0.055 c -0.18 0.018 -0.367 0.027 -0.559 0.027 c -0.246 0 -0.474 -0.028 -0.684 -0.082 c -0.204 -0.054 -0.385 -0.138 -0.541 -0.252 c -0.15 -0.12 -0.269 -0.269 -0.359 -0.449 c -0.084 -0.186 -0.127 -0.412 -0.127 -0.676 c 0 -0.252 0.049 -0.466 0.145 -0.646 c 0.096 -0.18 0.23 -0.327 0.404 -0.441 c 0.174 -0.12 0.381 -0.208 0.621 -0.262 c 0.24 -0.054 0.501 -0.08 0.783 -0.08 c 0.084 0 0.172 0.006 0.262 0.018 c 0.096 0.006 0.186 0.017 0.27 0.035 c 0.09 0.012 0.165 0.027 0.225 0.045 c 0.066 0.012 0.113 0.025 0.137 0.037 l 0 -0.289 c 0 -0.162 -0.013 -0.317 -0.037 -0.467 c -0.024 -0.156 -0.078 -0.294 -0.162 -0.414 c -0.078 -0.126 -0.192 -0.225 -0.342 -0.297 c -0.144 -0.078 -0.336 -0.117 -0.576 -0.117 c -0.342 0 -0.598 0.024 -0.766 0.072 c -0.168 0.048 -0.289 0.087 -0.367 0.117 l -0.082 -0.514 c 0.102 -0.048 0.259 -0.093 0.469 -0.135 c 0.216 -0.042 0.473 -0.063 0.773 -0.063 z m 0.18 2.475 c -0.144 0 -0.293 0.011 -0.449 0.035 c -0.156 0.018 -0.3 0.063 -0.432 0.135 c -0.132 0.066 -0.24 0.159 -0.324 0.279 c -0.084 0.12 -0.127 0.279 -0.127 0.477 c 0 0.174 0.028 0.321 0.082 0.441 c 0.06 0.12 0.14 0.217 0.242 0.289 c 0.108 0.072 0.235 0.126 0.379 0.162 c 0.15 0.03 0.318 0.045 0.504 0.045 c 0.228 0 0.426 -0.008 0.594 -0.02 c 0.174 -0.018 0.321 -0.038 0.441 -0.063 l 0 -1.639 c -0.066 -0.03 -0.172 -0.06 -0.316 -0.09 c -0.144 -0.036 -0.342 -0.053 -0.594 -0.053 z m 3.082 0.031 l 1.824 0 l 0 0.334 l -1.492 0 c -0.004 0.074 -0.01 0.17 -0.018 0.287 c -0.008 0.117 -0.016 0.237 -0.023 0.361 c -0.008 0.121 -0.018 0.238 -0.029 0.352 c -0.012 0.113 -0.021 0.203 -0.029 0.27 c 0.3 0.008 0.561 0.045 0.779 0.111 c 0.218 0.066 0.397 0.154 0.537 0.268 c 0.14 0.113 0.244 0.25 0.311 0.41 c 0.07 0.16 0.105 0.338 0.105 0.533 c 0 0.172 -0.029 0.33 -0.088 0.479 c -0.055 0.148 -0.141 0.278 -0.258 0.387 c -0.117 0.109 -0.264 0.195 -0.443 0.258 c -0.179 0.062 -0.393 0.094 -0.639 0.094 c -0.125 0 -0.242 -0.01 -0.352 -0.029 c -0.105 -0.016 -0.199 -0.035 -0.285 -0.059 c -0.082 -0.023 -0.152 -0.047 -0.211 -0.07 c -0.058 -0.023 -0.102 -0.043 -0.129 -0.059 l 0.1 -0.34 c 0.023 0.016 0.063 0.035 0.117 0.059 c 0.059 0.023 0.125 0.047 0.199 0.07 c 0.078 0.019 0.162 0.037 0.256 0.053 c 0.098 0.016 0.199 0.023 0.305 0.023 c 0.195 0 0.358 -0.022 0.486 -0.064 c 0.133 -0.047 0.236 -0.109 0.314 -0.188 c 0.078 -0.078 0.133 -0.168 0.164 -0.27 c 0.035 -0.105 0.053 -0.217 0.053 -0.338 c 0 -0.156 -0.025 -0.297 -0.076 -0.422 c -0.051 -0.125 -0.139 -0.231 -0.268 -0.316 c -0.129 -0.086 -0.303 -0.15 -0.521 -0.193 c -0.218 -0.047 -0.495 -0.07 -0.83 -0.07 c 0.023 -0.199 0.043 -0.379 0.059 -0.543 c 0.016 -0.168 0.029 -0.328 0.041 -0.48 c 0.012 -0.156 0.02 -0.305 0.023 -0.449 c 0.008 -0.148 0.014 -0.301 0.018 -0.457 z" style="fill:#ececec;fill-opacity:1"/>
</svg>
